X: 19
M:2/4
L:1/16
K:D
(uFG)|ABAG FAGB|ABcA dAFA|GABA GFED|CDEF .E2(FG)|
|:uA2|dcde fdAf|edef dAFA|dcde fgaf|edef e2(Ac)|
dcde fagf|edef dAFA|BdAF Ggec|d2d2d2:|


